X: 10
T: Joy to the Person of my Love
M:4/4
R:reel
L:1/8
Z:added by Alf warnock alf0@rogers.com - www.alfwarnock.info/alfs
K:Gm
|:"Gm"g2de "Bb"f2B2|"Cm"cdec "Bb"d3d|"Cm"cBAG "D7"A3G|"Gm"G8:|
|:"Gm"GABc d2ga|"Gm"bg"D7"a^f "Gm"g2de|"Bb"f2Bc d2c3/2B/2|B4 d2e2|
"Bb7"f2dB f3f|"Gm"gGBc d3d|"D"cBAG "D7"A3A|"Gm"G8:|
% C:\aaa\EnglishCountry\ECD02.abc
